X: 1
T: the Princess Royal
O: Gow's Repository
R: reel
B: RSCDS 2-7
Z: 1997 by John Chambers <jc:trillian.mit.edu>
M: C|
L: 1/8
K: Gm
|: GA \
| "Gm"B2AB G2dc | B2AB G2d2 | "Cm"e2ed c2fe | "Gm"decd B2{c}BA |
| "Gm"B2gB "F"A2fA | "Eb"GABG "D"D2dc | "Gm"BABG "D7"D2^F2 | "Gm"G4 G2 :|
d \
| "Gm"g2g^f "D7"{a}gfga | "Bb"b2B2 B2ba | "Gm"bagf "Cm"edcB | "F"ABcA F2GA |
| "Bb"B2AB "F"c2Bc | "Bb"d2d2 "Eb"g4 | "Bb"f2B2 "F7"e4 | "Bb"d2G2 "F"c4 |
| "Gm"BcBA GABG | "D7"^FGAF D2dc | "Gm"BABG "D7"D2^F2 | "Gm"G4 G2 |]
